symbols/web/rule_folder/materialsymbolsrounded/rule_folder_wght300gradN25fill1_40px.svg

<svg xmlns="http://www.w3.org/2000/svg" height="40" width="40"><path d="M13.042 25.208q.25 0 .479-.083.229-.083.396-.292l5.708-5.708q.333-.292.313-.708-.021-.417-.313-.709-.292-.291-.708-.291-.417 0-.709.291l-5.166 5.167-1.667-1.667q-.333-.25-.729-.27-.396-.021-.688.27-.291.334-.291.73 0 .395.291.687l2.209 2.208q.166.209.395.292.23.083.48.083Zm10.25-.166q.291.291.708.291t.708-.291l1.959-2 1.958 2q.292.291.708.291.417 0 .709-.291.291-.292.291-.709 0-.416-.291-.708l-1.959-1.958 1.959-1.959q.291-.291.291-.708t-.291-.708Q29.75 18 29.333 18q-.416 0-.708.292l-1.958 1.958-1.959-1.958Q24.417 18 24 18t-.708.292Q23 18.583 23 19t.292.708l2 1.959-2 1.958q-.292.292-.292.708 0 .417.292.709ZM6.875 32.333q-1 0-1.75-.75t-.75-1.75V10.917q0-1.042.75-1.771.75-.729 1.75-.729H17q.417 0 .792.146.375.145.625.437L20 10.583h13.125q1.042 0 1.792.75t.75 1.75v16.75q0 1-.75 1.75t-1.792.75Z"/></svg>

<svg xmlns="http://www.w3.org/2000/svg" height="40" width="40"><path d="M13.042 25.208Q13.292 25.208 13.521 25.125Q13.75 25.042 13.917 24.833L19.625 19.125Q19.958 18.833 19.938 18.417Q19.917 18 19.625 17.708Q19.333 17.417 18.917 17.417Q18.5 17.417 18.208 17.708L13.042 22.875L11.375 21.208Q11.042 20.958 10.646 20.938Q10.25 20.917 9.958 21.208Q9.667 21.542 9.667 21.938Q9.667 22.333 9.958 22.625L12.167 24.833Q12.333 25.042 12.562 25.125Q12.792 25.208 13.042 25.208ZM23.292 25.042Q23.583 25.333 24 25.333Q24.417 25.333 24.708 25.042L26.667 23.042L28.625 25.042Q28.917 25.333 29.333 25.333Q29.75 25.333 30.042 25.042Q30.333 24.75 30.333 24.333Q30.333 23.917 30.042 23.625L28.083 21.667L30.042 19.708Q30.333 19.417 30.333 19Q30.333 18.583 30.042 18.292Q29.75 18 29.333 18Q28.917 18 28.625 18.292L26.667 20.25L24.708 18.292Q24.417 18 24 18Q23.583 18 23.292 18.292Q23 18.583 23 19Q23 19.417 23.292 19.708L25.292 21.667L23.292 23.625Q23 23.917 23 24.333Q23 24.75 23.292 25.042ZM6.875 32.333Q5.875 32.333 5.125 31.583Q4.375 30.833 4.375 29.833V10.917Q4.375 9.875 5.125 9.146Q5.875 8.417 6.875 8.417H17Q17.417 8.417 17.792 8.563Q18.167 8.708 18.417 9L20 10.583H33.125Q34.167 10.583 34.917 11.333Q35.667 12.083 35.667 13.083V29.833Q35.667 30.833 34.917 31.583Q34.167 32.333 33.125 32.333Z"/></svg>
